assets/Couch and lamp/Flat/couch_and_lamp_flat.svg

<svg width="32" height="32" viewBox="0 0 32 32" fill="none" xmlns="http://www.w3.org/2000/svg">
<path d="M3 25C3 24.4477 3.44772 24 4 24H23C23.5523 24 24 24.4477 24 25V28C24 28.5523 23.5523 29 23 29H4C3.44772 29 3 28.5523 3 28V25Z" fill="#3F5FFF"/>
<path d="M5 17C4.44772 17 4 17.4477 4 18V23.5C4 24.0523 4.44772 24.5 5 24.5H22C22.5523 24.5 23 24.0523 23 23.5V18C23 17.4477 22.5523 17 22 17H14.5C13.9477 17 13.5 17.4477 13.5 18C13.5 17.4477 13.0523 17 12.5 17H5Z" fill="#1345B7"/>
<path d="M3 29L4 28L5 29V29.75C5 29.8881 4.88807 30 4.75 30H3.25C3.11193 30 3 29.8881 3 29.75V29Z" fill="#1345B7"/>
<path d="M23 28L22 29V29.75C22 29.8881 22.1119 30 22.25 30H23.75C23.8881 30 24 29.8881 24 29.75V29L23 28Z" fill="#1345B7"/>
<path d="M3.75 20C2.7835 20 2 20.7835 2 21.75V28C2 28.5523 2.44772 29 3 29H4.5C5.05228 29 5.5 28.5523 5.5 28V21.75C5.5 20.7835 4.7165 20 3.75 20Z" fill="#5092FF"/>
<path d="M23.25 20C22.2835 20 21.5 20.7835 21.5 21.75V28C21.5 28.5523 21.9477 29 22.5 29H24C24.5523 29 25 28.5523 25 28V21.75C25 20.7835 24.2165 20 23.25 20Z" fill="#5092FF"/>
<path d="M21.4409 2.84568C21.9398 1.97265 22.9041 1.5 24.5 1.5C26.0959 1.5 27.0602 1.97265 27.5591 2.84568C27.7932 3.2554 27.899 3.71265 27.9499 4.15807C28 4.59664 28 5.05801 28 5.48541V28.5H27V5.5C27 5.05648 26.9994 4.64836 26.9564 4.27162C26.9135 3.89672 26.8318 3.58835 26.6909 3.34182C26.4398 2.90235 25.9041 2.5 24.5 2.5C23.0959 2.5 22.5602 2.90235 22.3091 3.34182C22.1682 3.58835 22.0865 3.89672 22.0436 4.27162C22.0006 4.64836 22 5.05648 22 5.5V6.5H21L21 5.48541C21 5.05801 21 4.59664 21.0501 4.15807C21.101 3.71265 21.2068 3.2554 21.4409 2.84568Z" fill="#9B9B9B"/>
<path d="M21.5 6C23.433 6 25 7.567 25 9.5V12.5C25 12.7761 24.7761 13 24.5 13H18.5C18.2239 13 18 12.7761 18 12.5V9.5C18 7.567 19.567 6 21.5 6Z" fill="#FFB02E"/>
<path d="M25.5001 30H29.5C30 30 29.75 29.2991 29.75 29.2991C29.447 28.2595 28.6374 27.5 27.5 27.5C26.3626 27.5 25.553 28.2595 25.25 29.2991C25.25 29.2991 25 30 25.5001 30Z" fill="#FFB02E"/>
</svg>

<svg xmlns="http://www.w3.org/2000/svg" width="32" height="32" fill="none"><path fill="#3F5FFF" d="M3 25a1 1 0 0 1 1-1h19a1 1 0 0 1 1 1v3a1 1 0 0 1-1 1H4a1 1 0 0 1-1-1v-3Z"/><path fill="#1345B7" d="M5 17a1 1 0 0 0-1 1v5.5a1 1 0 0 0 1 1h17a1 1 0 0 0 1-1V18a1 1 0 0 0-1-1h-7.5a1 1 0 0 0-1 1 1 1 0 0 0-1-1H5ZM3 29l1-1 1 1v.75a.25.25 0 0 1-.25.25h-1.5a.25.25 0 0 1-.25-.25V29ZM23 28l-1 1v.75c0 .138.112.25.25.25h1.5a.25.25 0 0 0 .25-.25V29l-1-1Z"/><path fill="#5092FF" d="M3.75 20A1.75 1.75 0 0 0 2 21.75V28a1 1 0 0 0 1 1h1.5a1 1 0 0 0 1-1v-6.25A1.75 1.75 0 0 0 3.75 20ZM23.25 20a1.75 1.75 0 0 0-1.75 1.75V28a1 1 0 0 0 1 1H24a1 1 0 0 0 1-1v-6.25A1.75 1.75 0 0 0 23.25 20Z"/><path fill="#9B9B9B" d="M21.44 2.846c.5-.873 1.464-1.346 3.06-1.346s2.56.473 3.06 1.346c.233.41.339.867.39 1.312.05.439.05.9.05 1.327V28.5h-1v-23c0-.444 0-.852-.044-1.228-.043-.375-.124-.684-.265-.93-.251-.44-.787-.842-2.191-.842s-1.94.402-2.19.842c-.142.246-.223.555-.266.93C22 4.648 22 5.056 22 5.5v1h-1V5.485c0-.427 0-.888.05-1.327.051-.445.157-.903.39-1.312Z"/><path fill="#FFB02E" d="M21.5 6A3.5 3.5 0 0 1 25 9.5v3a.5.5 0 0 1-.5.5h-6a.5.5 0 0 1-.5-.5v-3A3.5 3.5 0 0 1 21.5 6ZM25.5 30h4c.5 0 .25-.7.25-.7-.303-1.04-1.113-1.8-2.25-1.8s-1.947.76-2.25 1.8c0 0-.25.7.25.7Z"/></svg>
